public/assets/img/phone.svg

<svg clip-rule="evenodd" fill-rule="evenodd" stroke-linejoin="round" stroke-miterlimit="2" viewBox="0 0 44 90" xmlns="http://www.w3.org/2000/svg"><g transform="matrix(1.01308 0 0 1.00617 -28.7226 -5.4436)"><path d="m28.352 5.41h43.296v89.179h-43.296z" fill="none"/><g transform="matrix(.987091 0 0 .993865 .71326 .440877)"><path d="m64.199 5.41h-28.398c-4.121 0-7.449 3.34-7.449 7.449v74.281c0 4.122 3.34 7.45 7.449 7.45h28.398c4.121 0 7.449-3.34 7.449-7.45v-74.281c0-4.121-3.34-7.449-7.449-7.449zm5.91 81.73c0 3.262-2.648 5.91-5.91 5.91h-28.398c-3.262 0-5.91-2.648-5.91-5.91v-74.281c0-3.261 2.648-5.91 5.91-5.91h28.398c3.262 0 5.91 2.648 5.91 5.91z" fill-rule="nonzero"/><path d="m45.578 12.051h8.828c1.051 0 1.91-.852 1.91-1.91 0-1.059-.851-1.91-1.91-1.91h-8.828c-1.051 0-1.91.851-1.91 1.91 0 1.058.851 1.91 1.91 1.91z" fill-rule="nonzero"/><path d="m56.859 90.82h-13.719c-.211 0-.379.172-.379.379 0 .211.172.379.379.379h13.719c.211 0 .379-.172.379-.379 0-.211-.172-.379-.379-.379z" fill-rule="nonzero"/><path d="m34.8461294 44.91044245h30.235033235v10.1403885418h-30.235033235z" fill="none" stroke-width=".0765347"/><g fill-rule="nonzero"><path d="m13.398 20.102v.398c0 .102 0 .102.102.2 0 .101.101.101.101.199 0 0 0 .101.102.101 13.195 21.199 22.598 40 33.297 66.898v.204c0 .101.101.101.101.199.102.101.102.199.199.199h.102c.102 0 .102.102.199.102h.102c.101 0 .199.101.301.101h1.003c.102 0 .102 0 .2-.101h.101c.102 0 .102-.102.199-.102 0 0 .102 0 .102-.102.102-.101.199-.101.199-.199.102-.101.102-.199.199-.199v-.102c0-.101.102-.101.102-.199v-.203c4.199-13.199 9.301-25.398 15.602-37.102 2.199.801 4.301 1.102 6.301 1.102 4.801 0 8.898-2.102 12-6.2 4.398-5.898 3.898-13.398 3.5-19.5-.199-3.5-.399-6.898.601-8.199.2-.3.301-.699.301-1 0-.5-.199-1.101-.699-1.398-.801-.602-1.898-.399-2.398.398-1 1.301-4.2 2.102-7.7 2.899-5.898 1.398-13.199 3.199-17.602 9.101-4.898 6.602-4 14.398 2.399 21.301l.101.102c-2.8 5.199-5.3 10.5-7.699 15.898-9.398-23.699-22.102-43.699-23.602-46-.301-.5-.898-.801-1.5-.801l-14.516.004h-.699c-.102 0-.102.102-.199.102 0 0-.102 0-.102.101-.101 0-.101.102-.199.102l-.508.508c0 .101 0 .101-.101.199v.5c.007.386.007.488.007.488zm49.602 9.699c3.602-4.898 10-6.398 15.602-7.699 2-.5 3.898-.898 5.5-1.5-.102 1.699 0 3.602.199 5.699.399 5.801.801 12.301-2.898 17.199-4.102 5.5-9.602 5.301-13.699 4.102 2.898-5.301 6.101-10.398 9.601-15.602.5-.801.301-1.899-.5-2.399-.8-.5-1.898-.3-2.398.5-3.602 5.301-6.801 10.602-9.801 16-3.105-3.601-6.504-9.703-1.605-16.301zm-10 39.699c0 .102.102.102.102.199-1.602 4.102-3.2 8.2-4.602 12.398-9.699-23.598-18.398-41.098-30.199-60.398h10.699c3 4.7 15.301 24.902 24 47.801z" transform="matrix(.0765347 0 0 .0765347 33.8479638426 43.7989290019)"/><path d="m.289.009c-.052 0-.096-.012-.133-.034s-.066-.054-.086-.094c-.021-.04-.031-.088-.031-.142 0-.055.01-.103.03-.143.02-.041.048-.073.085-.096.037-.022.081-.033.131-.033.057 0 .103.012.14.037.036.025.063.059.079.102s.021.092.016.146h-.401c.001.041.009.075.023.104s.033.05.059.065c.025.015.054.023.088.023.04 0 .074-.01.1-.029.027-.018.044-.043.051-.074h.078c-.005.033-.018.063-.039.088s-.048.045-.081.059c-.032.014-.069.021-.109.021zm-.169-.305-.008-.008h.338l-.009.01c.001-.039-.005-.071-.018-.097s-.031-.045-.055-.058-.051-.02-.084-.02c-.032 0-.06.007-.084.021s-.043.034-.057.06c-.013.026-.021.056-.023.092z" transform="matrix(3.826735 0 0 3.826735 38.7904982339 50.5876334266)"/><path d="m.277.177c-.039 0-.074-.006-.104-.018s-.054-.028-.073-.05c-.018-.022-.029-.048-.033-.078h.079c.003.017.01.032.022.045s.027.023.046.029c.019.007.04.01.065.01.033 0 .061-.004.085-.014.023-.01.041-.025.054-.047s.019-.051.019-.088v-.109h-.006c-.012.034-.034.061-.065.082-.032.021-.07.031-.114.031-.032 0-.061-.005-.087-.017-.027-.011-.049-.028-.068-.05-.018-.021-.033-.048-.043-.079s-.015-.067-.015-.106c0-.053.009-.098.027-.135.018-.038.043-.067.075-.087.033-.02.07-.03.113-.03.044 0 .081.01.112.031.032.02.053.047.065.081h.006l.002-.103h.078v.484c0 .04-.005.073-.017.101-.011.028-.028.05-.049.067-.022.018-.047.03-.076.038-.03.008-.062.012-.098.012zm.001-.271c.034 0 .062-.008.086-.024.023-.015.041-.035.054-.059.012-.023.019-.048.019-.073v-.064c-.001-.025-.007-.05-.019-.073-.012-.024-.029-.043-.053-.059-.023-.015-.051-.023-.086-.023-.032 0-.06.008-.083.023-.024.014-.042.036-.055.064-.012.028-.019.061-.019.1 0 .04.007.074.02.102s.031.049.054.064c.024.014.051.022.082.022z" transform="matrix(3.826735 0 0 3.826735 40.9258163639 50.5876334266)"/><path d="m.255.009c-.032 0-.061-.006-.088-.019-.026-.012-.049-.029-.068-.052s-.034-.052-.044-.085c-.011-.034-.016-.072-.016-.116 0-.058.009-.107.028-.147.018-.041.043-.071.075-.092.033-.021.07-.032.113-.032.031 0 .059.005.084.015.024.01.045.023.063.041.017.017.03.038.039.062h.005l.003-.109h.078v.525h-.081v-.11h-.005c-.013.035-.036.064-.068.086s-.072.033-.118.033zm.027-.068c.035 0 .065-.009.089-.025.024-.017.042-.038.055-.064.012-.026.019-.054.019-.083v-.064c0-.029-.007-.057-.019-.084-.013-.026-.031-.047-.055-.063-.024-.017-.054-.025-.089-.025-.032 0-.06.008-.084.024-.024.015-.042.038-.056.068-.013.03-.02.068-.02.112s.007.081.02.111c.014.031.032.054.056.069.024.016.052.024.084.024z" transform="matrix(3.826735 0 0 3.826735 43.1070553139 50.5876334266)"/><path d="m.076 0v-.525h.077l.003.109h.006c.016-.039.041-.068.074-.088.033-.019.07-.029.109-.029.028 0 .053.004.076.012s.043.021.059.039c.017.018.03.041.04.069.009.029.014.063.014.104v.309h-.081v-.293c0-.039-.005-.072-.014-.097-.01-.025-.025-.044-.044-.057-.02-.012-.045-.018-.076-.018-.033 0-.061.008-.086.024-.024.016-.043.038-.057.065-.013.027-.02.058-.02.092v.284z" transform="matrix(3.826735 0 0 3.826735 45.3380418189 50.5876334266)"/><path d="m.291.009c-.038 0-.072-.007-.103-.02s-.058-.031-.08-.055-.039-.052-.051-.085-.018-.07-.018-.111c0-.054.011-.102.032-.142.02-.041.05-.072.088-.095.039-.023.084-.034.135-.034.041 0 .078.007.111.023.032.015.059.037.079.065.02.027.031.059.034.096h-.078c-.005-.025-.014-.046-.028-.063s-.031-.03-.052-.039-.043-.013-.068-.013c-.036 0-.066.008-.092.025s-.045.041-.059.071c-.013.031-.02.066-.02.107 0 .042.007.078.021.108.015.03.034.053.06.069.025.016.055.024.089.024.028 0 .053-.006.075-.016.021-.01.039-.024.052-.043s.021-.04.024-.065h.079c-.003.039-.015.073-.035.102-.021.029-.048.051-.081.067s-.072.024-.114.024z" transform="matrix(3.826735 0 0 3.826735 47.5805085289 50.5876334266)"/><path d="m.076 0v-.729h.08v.313h.006c.016-.039.041-.068.074-.088.033-.019.07-.029.109-.029.028 0 .053.004.076.012s.043.021.059.039c.017.018.03.041.04.069.009.029.014.063.014.104v.309h-.081v-.293c0-.039-.005-.072-.014-.097-.01-.025-.025-.044-.044-.057-.02-.012-.045-.018-.076-.018-.033 0-.061.008-.086.024-.024.016-.043.038-.057.065-.013.027-.02.058-.02.092v.284z" transform="matrix(3.826735 0 0 3.826735 49.6699058389 50.5876334266)"/><path d="m.289.009c-.052 0-.096-.012-.133-.034s-.066-.054-.086-.094c-.021-.04-.031-.088-.031-.142 0-.055.01-.103.03-.143.02-.041.048-.073.085-.096.037-.022.081-.033.131-.033.057 0 .103.012.14.037.036.025.063.059.079.102s.021.092.016.146h-.401c.001.041.009.075.023.104s.033.05.059.065c.025.015.054.023.088.023.04 0 .074-.01.1-.029.027-.018.044-.043.051-.074h.078c-.005.033-.018.063-.039.088s-.048.045-.081.059c-.032.014-.069.021-.109.021zm-.169-.305-.008-.008h.338l-.009.01c.001-.039-.005-.071-.018-.097s-.031-.045-.055-.058-.051-.02-.084-.02c-.032 0-.06.007-.084.021s-.043.034-.057.06c-.013.026-.021.056-.023.092z" transform="matrix(3.826735 0 0 3.826735 51.9123725489 50.5876334266)"/><path d="m.291.009c-.038 0-.072-.007-.103-.02s-.058-.031-.08-.055-.039-.052-.051-.085-.018-.07-.018-.111c0-.054.011-.102.032-.142.02-.041.05-.072.088-.095.039-.023.084-.034.135-.034.041 0 .078.007.111.023.032.015.059.037.079.065.02.027.031.059.034.096h-.078c-.005-.025-.014-.046-.028-.063s-.031-.03-.052-.039-.043-.013-.068-.013c-.036 0-.066.008-.092.025s-.045.041-.059.071c-.013.031-.02.066-.02.107 0 .042.007.078.021.108.015.03.034.053.06.069.025.016.055.024.089.024.028 0 .053-.006.075-.016.021-.01.039-.024.052-.043s.021-.04.024-.065h.079c-.003.039-.015.073-.035.102-.021.029-.048.051-.081.067s-.072.024-.114.024z" transform="matrix(3.826735 0 0 3.826735 54.0476906789 50.5876334266)"/><path d="m.076 0v-.729h.082v.472l.047-.05.216-.218h.102l-.205.203.214.322h-.095l-.143-.215-.032-.052-.104.101v.166z" transform="matrix(3.826735 0 0 3.826735 56.1370879889 50.5876334266)"/></g><path d="m58.3604210239 50.2432272766h.317619005v.34440615h-.317619005z" stroke-width="3.826735"/><path d="m.076 0v-.525h.077l.003.109h.006c.015-.039.04-.068.072-.088.033-.019.068-.029.108-.029s.075.009.106.029.053.052.066.097h.008c.016-.042.04-.073.075-.095.034-.021.072-.031.115-.031.035 0 .067.007.095.022.027.015.049.039.065.071.016.033.024.077.024.131v.309h-.08v-.293c0-.039-.005-.072-.015-.097-.009-.025-.023-.044-.043-.057-.019-.012-.044-.018-.074-.018-.032 0-.059.008-.083.024s-.042.038-.055.065-.019.058-.019.092v.284h-.082v-.293c0-.039-.005-.072-.014-.097s-.024-.044-.043-.057c-.019-.012-.043-.018-.073-.018-.032 0-.06.008-.084.024-.023.016-.042.038-.055.065s-.02.058-.02.092v.284z" fill-rule="nonzero" transform="matrix(3.826735 0 0 3.826735 58.7928420789 50.5876334266)"/><path d="m.289.009c-.052 0-.096-.012-.133-.034s-.066-.054-.086-.094c-.021-.04-.031-.088-.031-.142 0-.055.01-.103.03-.143.02-.041.048-.073.085-.096.037-.022.081-.033.131-.033.057 0 .103.012.14.037.036.025.063.059.079.102s.021.092.016.146h-.401c.001.041.009.075.023.104s.033.05.059.065c.025.015.054.023.088.023.04 0 .074-.01.1-.029.027-.018.044-.043.051-.074h.078c-.005.033-.018.063-.039.088s-.048.045-.081.059c-.032.014-.069.021-.109.021zm-.169-.305-.008-.008h.338l-.009.01c.001-.039-.005-.071-.018-.097s-.031-.045-.055-.058-.051-.02-.084-.02c-.032 0-.06.007-.084.021s-.043.034-.057.06c-.013.026-.021.056-.023.092z" fill-rule="nonzero" transform="matrix(3.826735 0 0 3.826735 62.4703344139 50.5876334266)"/></g></g></svg>

<?xml version="1.0" encoding="UTF-8" standalone="no"?>
<!DOCTYPE svg PUBLIC "-//W3C//DTD SVG 1.1//EN" "http://www.w3.org/Graphics/SVG/1.1/DTD/svg11.dtd">
<svg width="100%" height="100%" viewBox="0 0 44 90" version="1.1" xmlns="http://www.w3.org/2000/svg" xmlns:xlink="http://www.w3.org/1999/xlink" xml:space="preserve" xmlns:serif="http://www.serif.com/" style="fill-rule:evenodd;clip-rule:evenodd;stroke-linejoin:round;stroke-miterlimit:2;">
    <g transform="matrix(1.01308,0,0,1.00617,-28.7226,-5.4436)">
        <rect x="28.352" y="5.41" width="43.296" height="89.179" style="fill:none;"/>
        <g transform="matrix(0.987091,0,0,0.993865,0.71326,0.440877)">
            <path d="M64.199,5.41L35.801,5.41C31.68,5.41 28.352,8.75 28.352,12.859L28.352,87.14C28.352,91.262 31.692,94.59 35.801,94.59L64.199,94.59C68.32,94.59 71.648,91.25 71.648,87.14L71.648,12.859C71.648,8.738 68.308,5.41 64.199,5.41ZM70.109,87.14C70.109,90.402 67.461,93.05 64.199,93.05L35.801,93.05C32.539,93.05 29.891,90.402 29.891,87.14L29.891,12.859C29.891,9.598 32.539,6.949 35.801,6.949L64.199,6.949C67.461,6.949 70.109,9.597 70.109,12.859L70.109,87.14Z" style="fill-rule:nonzero;"/>
            <path d="M45.578,12.051L54.406,12.051C55.457,12.051 56.316,11.199 56.316,10.141C56.316,9.082 55.465,8.231 54.406,8.231L45.578,8.231C44.527,8.231 43.668,9.082 43.668,10.141C43.668,11.199 44.519,12.051 45.578,12.051Z" style="fill-rule:nonzero;"/>
            <path d="M56.859,90.82L43.14,90.82C42.929,90.82 42.761,90.992 42.761,91.199C42.761,91.41 42.933,91.578 43.14,91.578L56.859,91.578C57.07,91.578 57.238,91.406 57.238,91.199C57.238,90.988 57.066,90.82 56.859,90.82Z" style="fill-rule:nonzero;"/>
            <rect x="34.846" y="44.91" width="30.235" height="10.14" style="fill:none;"/>
            <g transform="matrix(1,0,0,1,8.38255,0.793639)">
                <g transform="matrix(0.999998,0,0,1,13.1879,-49.8136)">
                    <g transform="matrix(3,0,0,3,25.3805,100.425)">
                        <path d="M0.289,0.009C0.237,0.009 0.193,-0.003 0.156,-0.025C0.119,-0.047 0.09,-0.079 0.07,-0.119C0.049,-0.159 0.039,-0.207 0.039,-0.261C0.039,-0.316 0.049,-0.364 0.069,-0.404C0.089,-0.445 0.117,-0.477 0.154,-0.5C0.191,-0.522 0.235,-0.533 0.285,-0.533C0.342,-0.533 0.388,-0.521 0.425,-0.496C0.461,-0.471 0.488,-0.437 0.504,-0.394C0.52,-0.351 0.525,-0.302 0.52,-0.248L0.119,-0.248C0.12,-0.207 0.128,-0.173 0.142,-0.144C0.156,-0.115 0.175,-0.094 0.201,-0.079C0.226,-0.064 0.255,-0.056 0.289,-0.056C0.329,-0.056 0.363,-0.066 0.389,-0.085C0.416,-0.103 0.433,-0.128 0.44,-0.159L0.518,-0.159C0.513,-0.126 0.5,-0.096 0.479,-0.071C0.458,-0.046 0.431,-0.026 0.398,-0.012C0.366,0.002 0.329,0.009 0.289,0.009ZM0.12,-0.296L0.112,-0.304L0.45,-0.304L0.441,-0.294C0.442,-0.333 0.436,-0.365 0.423,-0.391C0.41,-0.417 0.392,-0.436 0.368,-0.449C0.344,-0.462 0.317,-0.469 0.284,-0.469C0.252,-0.469 0.224,-0.462 0.2,-0.448C0.176,-0.434 0.157,-0.414 0.143,-0.388C0.13,-0.362 0.122,-0.332 0.12,-0.296Z" style="fill-rule:nonzero;"/>
                    </g>
                    <g transform="matrix(3,0,0,3,27.0545,100.425)">
                        <path d="M0.277,0.177C0.238,0.177 0.203,0.171 0.173,0.159C0.143,0.147 0.119,0.131 0.1,0.109C0.082,0.087 0.071,0.061 0.067,0.031L0.146,0.031C0.149,0.048 0.156,0.063 0.168,0.076C0.18,0.089 0.195,0.099 0.214,0.105C0.233,0.112 0.254,0.115 0.279,0.115C0.312,0.115 0.34,0.111 0.364,0.101C0.387,0.091 0.405,0.076 0.418,0.054C0.431,0.032 0.437,0.003 0.437,-0.034L0.437,-0.143L0.431,-0.143C0.419,-0.109 0.397,-0.082 0.366,-0.061C0.334,-0.04 0.296,-0.03 0.252,-0.03C0.22,-0.03 0.191,-0.035 0.165,-0.047C0.138,-0.058 0.116,-0.075 0.097,-0.097C0.079,-0.118 0.064,-0.145 0.054,-0.176C0.044,-0.207 0.039,-0.243 0.039,-0.282C0.039,-0.335 0.048,-0.38 0.066,-0.417C0.084,-0.455 0.109,-0.484 0.141,-0.504C0.174,-0.524 0.211,-0.534 0.254,-0.534C0.298,-0.534 0.335,-0.524 0.366,-0.503C0.398,-0.483 0.419,-0.456 0.431,-0.422L0.437,-0.422L0.439,-0.525L0.517,-0.525L0.517,-0.041C0.517,-0.001 0.512,0.032 0.5,0.06C0.489,0.088 0.472,0.11 0.451,0.127C0.429,0.145 0.404,0.157 0.375,0.165C0.345,0.173 0.313,0.177 0.277,0.177ZM0.278,-0.094C0.312,-0.094 0.34,-0.102 0.364,-0.118C0.387,-0.133 0.405,-0.153 0.418,-0.177C0.43,-0.2 0.437,-0.225 0.437,-0.25L0.437,-0.314C0.436,-0.339 0.43,-0.364 0.418,-0.387C0.406,-0.411 0.389,-0.43 0.365,-0.446C0.342,-0.461 0.314,-0.469 0.279,-0.469C0.247,-0.469 0.219,-0.461 0.196,-0.446C0.172,-0.432 0.154,-0.41 0.141,-0.382C0.129,-0.354 0.122,-0.321 0.122,-0.282C0.122,-0.242 0.129,-0.208 0.142,-0.18C0.155,-0.152 0.173,-0.131 0.196,-0.116C0.22,-0.102 0.247,-0.094 0.278,-0.094Z" style="fill-rule:nonzero;"/>
                    </g>
                    <g transform="matrix(3,0,0,3,28.7645,100.425)">
                        <path d="M0.255,0.009C0.223,0.009 0.194,0.003 0.167,-0.01C0.141,-0.022 0.118,-0.039 0.099,-0.062C0.08,-0.085 0.065,-0.114 0.055,-0.147C0.044,-0.181 0.039,-0.219 0.039,-0.263C0.039,-0.321 0.048,-0.37 0.067,-0.41C0.085,-0.451 0.11,-0.481 0.142,-0.502C0.175,-0.523 0.212,-0.534 0.255,-0.534C0.286,-0.534 0.314,-0.529 0.339,-0.519C0.363,-0.509 0.384,-0.496 0.402,-0.478C0.419,-0.461 0.432,-0.44 0.441,-0.416L0.446,-0.416L0.449,-0.525L0.527,-0.525L0.527,-0L0.446,-0L0.446,-0.11L0.441,-0.11C0.428,-0.075 0.405,-0.046 0.373,-0.024C0.341,-0.002 0.301,0.009 0.255,0.009ZM0.282,-0.059C0.317,-0.059 0.347,-0.068 0.371,-0.084C0.395,-0.101 0.413,-0.122 0.426,-0.148C0.438,-0.174 0.445,-0.202 0.445,-0.231L0.445,-0.295C0.445,-0.324 0.438,-0.352 0.426,-0.379C0.413,-0.405 0.395,-0.426 0.371,-0.442C0.347,-0.459 0.317,-0.467 0.282,-0.467C0.25,-0.467 0.222,-0.459 0.198,-0.443C0.174,-0.428 0.156,-0.405 0.142,-0.375C0.129,-0.345 0.122,-0.307 0.122,-0.263C0.122,-0.219 0.129,-0.182 0.142,-0.152C0.156,-0.121 0.174,-0.098 0.198,-0.083C0.222,-0.067 0.25,-0.059 0.282,-0.059Z" style="fill-rule:nonzero;"/>
                    </g>
                    <g transform="matrix(3,0,0,3,30.5135,100.425)">
                        <path d="M0.076,-0L0.076,-0.525L0.153,-0.525L0.156,-0.416L0.162,-0.416C0.178,-0.455 0.203,-0.484 0.236,-0.504C0.269,-0.523 0.306,-0.533 0.345,-0.533C0.373,-0.533 0.398,-0.529 0.421,-0.521C0.444,-0.513 0.464,-0.5 0.48,-0.482C0.497,-0.464 0.51,-0.441 0.52,-0.413C0.529,-0.384 0.534,-0.35 0.534,-0.309L0.534,-0L0.453,-0L0.453,-0.293C0.453,-0.332 0.448,-0.365 0.439,-0.39C0.429,-0.415 0.414,-0.434 0.395,-0.447C0.375,-0.459 0.35,-0.465 0.319,-0.465C0.286,-0.465 0.258,-0.457 0.233,-0.441C0.209,-0.425 0.19,-0.403 0.176,-0.376C0.163,-0.349 0.156,-0.318 0.156,-0.284L0.156,-0L0.076,-0Z" style="fill-rule:nonzero;"/>
                    </g>
                    <g transform="matrix(3,0,0,3,32.2715,100.425)">
                        <path d="M0.076,-0L0.076,-0.525L0.157,-0.525L0.157,-0L0.076,-0ZM0.076,-0.612L0.076,-0.729L0.157,-0.729L0.157,-0.612L0.076,-0.612Z" style="fill-rule:nonzero;"/>
                    </g>
                    <g transform="matrix(3,0,0,3,32.8925,100.425)">
                        <path d="M0.113,-0L0.113,-0.458L0.013,-0.458L0.013,-0.525L0.113,-0.525L0.113,-0.614C0.113,-0.652 0.125,-0.681 0.147,-0.7C0.17,-0.719 0.2,-0.729 0.239,-0.729L0.326,-0.729L0.326,-0.67L0.258,-0.67C0.233,-0.67 0.216,-0.664 0.207,-0.652C0.199,-0.641 0.194,-0.625 0.194,-0.606L0.194,-0.525L0.314,-0.525L0.314,-0.458L0.194,-0.458L0.194,-0L0.113,-0Z" style="fill-rule:nonzero;"/>
                    </g>
                    <g transform="matrix(3,0,0,3,33.7895,100.425)">
                        <path d="M0.032,0.167L0.032,0.1L0.086,0.1C0.102,0.1 0.116,0.097 0.127,0.093C0.139,0.088 0.148,0.081 0.156,0.072C0.165,0.062 0.171,0.05 0.177,0.036L0.212,-0.054L0.212,-0.018L-0.004,-0.525L0.085,-0.525L0.217,-0.186L0.242,-0.12L0.246,-0.12L0.269,-0.186L0.394,-0.525L0.479,-0.525L0.253,0.056C0.243,0.083 0.231,0.105 0.217,0.121C0.203,0.137 0.186,0.149 0.167,0.156C0.147,0.163 0.124,0.167 0.098,0.167L0.032,0.167Z" style="fill-rule:nonzero;"/>
                    </g>
                </g>
                <g transform="matrix(0.0765347,0,0,0.0765347,33.848,43.7989)">
                    <path d="M13.398,20.102L13.398,20.5C13.398,20.602 13.398,20.602 13.5,20.7C13.5,20.801 13.601,20.801 13.601,20.899C13.601,20.899 13.601,21 13.703,21C26.898,42.199 36.301,61 47,87.898L47,88.102C47,88.203 47.101,88.203 47.101,88.301C47.203,88.402 47.203,88.5 47.3,88.5L47.402,88.5C47.504,88.5 47.504,88.602 47.601,88.602L47.703,88.602C47.804,88.602 47.902,88.703 48.004,88.703L49.007,88.703C49.109,88.703 49.109,88.703 49.207,88.602L49.308,88.602C49.41,88.602 49.41,88.5 49.507,88.5C49.507,88.5 49.609,88.5 49.609,88.398C49.711,88.297 49.808,88.297 49.808,88.199C49.91,88.098 49.91,88 50.007,88L50.007,87.898C50.007,87.797 50.109,87.797 50.109,87.699L50.109,87.496C54.308,74.297 59.41,62.098 65.711,50.394C67.91,51.195 70.012,51.496 72.012,51.496C76.813,51.496 80.91,49.394 84.012,45.296C88.41,39.398 87.91,31.898 87.512,25.796C87.313,22.296 87.113,18.898 88.113,17.597C88.313,17.297 88.414,16.898 88.414,16.597C88.414,16.097 88.215,15.496 87.715,15.199C86.914,14.597 85.817,14.8 85.317,15.597C84.317,16.898 81.117,17.699 77.617,18.496C71.719,19.894 64.418,21.695 60.015,27.597C55.117,34.199 56.015,41.995 62.414,48.898L62.515,49C59.715,54.199 57.215,59.5 54.816,64.898C45.418,41.199 32.714,21.199 31.214,18.898C30.913,18.398 30.316,18.097 29.714,18.097L15.198,18.101L14.499,18.101C14.397,18.101 14.397,18.203 14.3,18.203C14.3,18.203 14.198,18.203 14.198,18.304C14.097,18.304 14.097,18.406 13.999,18.406L13.491,18.914C13.491,19.015 13.491,19.015 13.39,19.113L13.39,19.613C13.397,19.999 13.397,20.101 13.397,20.101L13.398,20.102ZM63,29.801C66.602,24.903 73,23.403 78.602,22.102C80.602,21.602 82.5,21.204 84.102,20.602C84,22.301 84.102,24.204 84.301,26.301C84.7,32.102 85.102,38.602 81.403,43.5C77.301,49 71.801,48.801 67.704,47.602C70.602,42.301 73.805,37.204 77.305,32C77.805,31.199 77.606,30.101 76.805,29.601C76.005,29.101 74.907,29.301 74.407,30.101C70.805,35.402 67.606,40.703 64.606,46.101C61.501,42.5 58.102,36.398 63.001,29.8L63,29.801ZM53,69.5C53,69.602 53.102,69.602 53.102,69.699C51.5,73.801 49.902,77.899 48.5,82.097C38.801,58.499 30.102,40.999 18.301,21.699L29,21.699C32,26.399 44.301,46.601 53,69.5Z" style="fill-rule:nonzero;"/>
                </g>
            </g>
        </g>
    </g>
</svg>
